X: 9132
T: Daidí Páidín
R: jig
M: 6/8
K: Cmajor
GS|:G2c cBc|e2c c2B|A2d d^cd|f2e dcA|G2c cBc!coda!|
[1e2c c2G|ABc d2e|fga c2B:|2 e2c cdc|BAG GAB|cdec2G||
|:G2cc2G|G2cc2A|d2e dcA|d2e dcA|
[1G2dd2e|f2e dcA|G2c c2d|e2d cBA:|
[2Gfe d2c|d2g g2B|A2f f2e|dec BAGS||
e2c c2G|ABc Bcd|c3z3||

